X: 34873
T: Robert Laurne Fraser's
R: jig
M: 6/8
K: Emajor
B|egf Te2 B|cec cBA|Bce Tfef|gff Tf2B|
egf Te2 B|cec cBA|Bce Tfef|gee Te2:|
|:g|egb bge|fef gfc|egb bge|fef {e/f/}(g2f)|
egb bge|fef gec|Bce Tfef|gee Te2:|

